X: 6314
T: Carrickmacross
R: jig
M: 6/8
K: Gmajor
d/c/|BGB dBd|egg gfe|dcB c2d|ecA A2 d/c/|
BGB dBd|egg gfe|dcB edc|BGG G2||
b/c'/|bgb afa|gfe dBA|GAG c2d|ecA A2 b/c'/|
bgb afa|gfe dBA|GBd edc|BGG G2||

